X:1155
T:Banshee
M:4/4
L:1/8
R:Reel
K:G
DE|:G3D EDEG|AGAB~d2Bd|edge dBGA|BAGE EDDE|GFGD EDEG|AGAB~d2Bd|efge dB
GA|BAGE EDD2:|:eaag efge|dBBA~B3d|eB~B2egfg|eBBA~B3 d|eaag efge|dBB
A B3d|efed BAGA|BAGE EDD2:|


